public/svgs/icons/community.svg

<svg fill="none" height="68" viewBox="0 0 97 68" width="97" xmlns="http://www.w3.org/2000/svg"><path d="m46.89 56.9199c-.4849-.0029-.9555-.1645-1.34-.46l-.29-.23c-9.11-7-14.6-11.3-17.74-16.87-2.94-5.2-2.6-9.26-1.8-11.76.4888-1.4955 1.2861-2.8718 2.3403-4.0397s2.3419-2.1015 3.7797-2.7403c2.5893-1.1455 5.4919-1.3735 8.2283-.6462s5.1428 2.3663 6.8217 4.6462c1.683-2.2778 4.0912-3.9149 6.8283-4.6419 2.7372-.727 5.6403-.5006 8.2317.6419 1.4378.6388 2.7255 1.5724 3.7797 2.7403 1.0543 1.1679 1.8516 2.5442 2.3403 4.0397.8 2.5 1.14 6.56-1.8 11.76-3.14 5.57-8.64 9.82-17.74 16.88l-.29.22c-.3882.2957-.862.4571-1.35.46zm-10.07-35.18c-1.4283-.0086-2.8413.2951-4.14.89-1.1863.5279-2.2491 1.2978-3.1205 2.2604-.8714.9627-1.532 2.0967-1.9395 3.3296-1 3-.4 6.54 1.64 10.15 2.94 5.22 8.32 9.39 17.22 16.28l.29.23c.0373.0241.0807.0369.125.0369.0444 0 .0878-.0128.125-.0369l.28-.22c8.91-6.9 14.29-11.07 17.23-16.29 2-3.61 2.61-7.13 1.64-10.15-.4075-1.2329-1.0681-2.3669-1.9394-3.3296-.8714-.9626-1.9343-1.7325-3.1206-2.2604-4.82-2.23-11-.12-13.25 4.52l-.27.57h-.7c-.2079.0065-.4133-.0477-.5909-.156-.1776-.1084-.3197-.2661-.4091-.454-.8743-1.6405-2.1828-3.0091-3.7824-3.9561-1.5996-.9471-3.4288-1.4362-5.2876-1.4139z" fill="#bad8db"/><g fill="#ed6a5e"><path d="m13.0598 64.18c-.2031-.0034-.3968-.0859-.54-.23-7.86984-8.0312-12.350362-18.7809-12.51416909-30.0241-.16380691-11.2431 4.00164909-22.1188 11.63416909-30.37587.139-.11688.3156-.17937.4972-.17587.1815.0035.3557.07276.49.19491.1344.12215.2199.2889.2406.4693.0208.18041-.0247.36221-.1278.51166-7.37744 7.97547-11.4033 18.48387-11.24319 29.34707s4.49391 21.2483 12.10319 29.0029c.1411.1424.2202.3346.2202.535s-.0791.3927-.2202.535c-.0709.07-.1554.1248-.2483.1609s-.1921.0528-.2917.0491z"/><path d="m22.2902 54.9999c-.1001.0012-.1995-.0176-.2923-.0554-.0927-.0378-.1769-.0937-.2477-.1646-5.5024-5.6637-8.6168-13.226-8.6987-21.1221-.0819-7.896 2.8749-15.5213 8.2587-21.2979.0607-.088.1396-.162.2313-.217.0917-.0551.1941-.0899.3003-.1021s.2139-.0015.3157.0312c.1017.0328.1953.087.2745.159.0791.0719.1419.1599.1842.2581.0424.0982.0632.2044.0611.3113-.002.1069-.0269.2121-.073.3086s-.1123.1821-.1941.2509c-5.1218 5.4938-7.9357 12.7463-7.8594 20.2569.0763 7.5107 3.037 14.7045 8.2694 20.0931.1404.1406.2193.3313.2193.53 0 .1988-.0789.3894-.2193.53-.1401.1426-.3302.225-.53.23z"/><path d="m13.7994 67.0199c1.4856 0 2.69-1.2043 2.69-2.69 0-1.4856-1.2044-2.69-2.69-2.69-1.4857 0-2.69 1.2044-2.69 2.69 0 1.4857 1.2043 2.69 2.69 2.69z"/><path d="m13.7994 5.38c1.4856 0 2.69-1.20435 2.69-2.69s-1.2044-2.69-2.69-2.69c-1.4857 0-2.69 1.20435-2.69 2.69s1.2043 2.69 2.69 2.69z"/><path d="m23.4595 57.35c1.4857 0 2.69-1.2044 2.69-2.69 0-1.4857-1.2043-2.69-2.69-2.69-1.4856 0-2.69 1.2043-2.69 2.69 0 1.4856 1.2044 2.69 2.69 2.69z"/><path d="m23.4595 14.5099c1.4857 0 2.69-1.2043 2.69-2.69 0-1.4856-1.2043-2.69002-2.69-2.69002-1.4856 0-2.69 1.20442-2.69 2.69002 0 1.4857 1.2044 2.69 2.69 2.69z"/><path d="m83.5996 64.1801c-.0963.001-.1917-.017-.281-.0531-.0892-.036-.1705-.0894-.239-.1569-.1411-.1423-.2202-.3346-.2202-.535s.0791-.3927.2202-.535c7.5998-7.7562 11.9266-18.1374 12.0848-28.9951s-3.8642-21.3606-11.2348-29.33495c-.1032-.14945-.1486-.33125-.1278-.51166.0207-.1804.1062-.34715.2405-.4693.1344-.12215.3085-.19141.4901-.19491.1815-.0035.3582.05899.4972.17587 7.64 8.25995 11.8091 19.14275 11.6435 30.39305-.1657 11.2503-4.6536 22.0056-12.5335 30.037-.1499.1277-.3435.1922-.54.18z"/><path d="m74.3802 54.9999c-.197.0004-.3867-.0747-.53-.21-.1405-.1406-.2193-.3312-.2193-.53 0-.1987.0788-.3894.2193-.53 5.2324-5.3886 8.1931-12.5824 8.2694-20.093s-2.7376-14.7632-7.8594-20.257c-.0818-.0688-.148-.1543-.1941-.2508s-.071-.2018-.073-.3087c-.0021-.1069.0187-.213.0611-.3113.0423-.0982.1051-.1862.1842-.2581.0792-.072.1727-.1261.2745-.1589s.2094-.0435.3157-.0313c.1062.0122.2086.047.3003.1021.0917.055.1706.129.2313.217 5.3838 5.7766 8.3406 13.4019 8.2587 21.298-.0819 7.896-3.1963 15.4583-8.6987 21.122-.0717.0682-.1566.1211-.2494.1555-.0929.0344-.1917.0495-.2906.0445z"/><path d="m82.8599 67.0199c1.4857 0 2.69-1.2043 2.69-2.69 0-1.4856-1.2043-2.69-2.69-2.69-1.4856 0-2.69 1.2044-2.69 2.69 0 1.4857 1.2044 2.69 2.69 2.69z"/><path d="m82.8599 5.38c1.4857 0 2.69-1.20435 2.69-2.69s-1.2043-2.69-2.69-2.69c-1.4856 0-2.69 1.20435-2.69 2.69s1.2044 2.69 2.69 2.69z"/><path d="m73.1998 57.35c1.4856 0 2.69-1.2044 2.69-2.69 0-1.4857-1.2044-2.69-2.69-2.69-1.4857 0-2.69 1.2043-2.69 2.69 0 1.4856 1.2043 2.69 2.69 2.69z"/><path d="m73.1998 14.5099c1.4856 0 2.69-1.2043 2.69-2.69 0-1.4856-1.2044-2.69002-2.69-2.69002-1.4857 0-2.69 1.20442-2.69 2.69002 0 1.4857 1.2043 2.69 2.69 2.69z"/></g></svg>

<svg width="97" height="68" viewBox="0 0 97 68" fill="none" xmlns="http://www.w3.org/2000/svg">
<path d="M46.89 56.9199C46.4051 56.917 45.9345 56.7554 45.55 56.4599L45.26 56.2299C36.15 49.2299 30.66 44.9299 27.52 39.3599C24.58 34.1599 24.92 30.0999 25.72 27.5999C26.2088 26.1044 27.0061 24.7281 28.0603 23.5602C29.1145 22.3923 30.4022 21.4587 31.84 20.8199C34.4293 19.6744 37.3319 19.4464 40.0683 20.1737C42.8047 20.901 45.2111 22.54 46.89 24.8199C48.573 22.5421 50.9812 20.905 53.7183 20.178C56.4555 19.451 59.3586 19.6774 61.95 20.8199C63.3878 21.4587 64.6755 22.3923 65.7297 23.5602C66.784 24.7281 67.5813 26.1044 68.07 27.5999C68.87 30.0999 69.21 34.1599 66.27 39.3599C63.13 44.9299 57.63 49.1799 48.53 56.2399L48.24 56.4599C47.8518 56.7556 47.378 56.917 46.89 56.9199ZM36.82 21.7399C35.3917 21.7313 33.9787 22.035 32.68 22.6299C31.4937 23.1578 30.4309 23.9277 29.5595 24.8903C28.6881 25.853 28.0275 26.987 27.62 28.2199C26.62 31.2199 27.22 34.7599 29.26 38.3699C32.2 43.5899 37.58 47.7599 46.48 54.6499L46.77 54.8799C46.8073 54.904 46.8507 54.9168 46.895 54.9168C46.9394 54.9168 46.9828 54.904 47.02 54.8799L47.3 54.6599C56.21 47.7599 61.59 43.5899 64.53 38.3699C66.53 34.7599 67.14 31.2399 66.17 28.2199C65.7625 26.987 65.1019 25.853 64.2306 24.8903C63.3592 23.9277 62.2963 23.1578 61.11 22.6299C56.29 20.3999 50.11 22.5099 47.86 27.1499L47.59 27.7199H46.89C46.6821 27.7264 46.4767 27.6722 46.2991 27.5639C46.1215 27.4555 45.9794 27.2978 45.89 27.1099C45.0157 25.4694 43.7072 24.1008 42.1076 23.1538C40.508 22.2067 38.6788 21.7176 36.82 21.7399Z" fill="#BAD8DB"/>
<path d="M13.0598 64.18C12.8567 64.1766 12.663 64.0941 12.5198 63.95C4.64996 55.9188 0.169438 45.1691 0.00563091 33.9259C-0.158176 22.6828 4.00728 11.8071 11.6398 3.55003C11.7788 3.43315 11.9554 3.37066 12.137 3.37416C12.3185 3.37766 12.4927 3.44692 12.627 3.56907C12.7614 3.69122 12.8469 3.85797 12.8676 4.03837C12.8884 4.21878 12.8429 4.40058 12.7398 4.55003C5.36236 12.5255 1.3365 23.0339 1.49661 33.8971C1.65672 44.7603 5.99052 55.1454 13.5998 62.9C13.7409 63.0424 13.82 63.2346 13.82 63.435C13.82 63.6354 13.7409 63.8277 13.5998 63.97C13.5289 64.04 13.4444 64.0948 13.3515 64.1309C13.2586 64.167 13.1594 64.1837 13.0598 64.18Z" fill="#ED6A5E"/>
<path d="M22.2902 54.9999C22.1901 55.0011 22.0907 54.9823 21.9979 54.9445C21.9052 54.9067 21.821 54.8508 21.7502 54.7799C16.2478 49.1162 13.1334 41.5539 13.0515 33.6578C12.9696 25.7618 15.9264 18.1365 21.3102 12.3599C21.3709 12.2719 21.4498 12.1979 21.5415 12.1429C21.6332 12.0878 21.7356 12.053 21.8418 12.0408C21.948 12.0286 22.0557 12.0393 22.1575 12.072C22.2592 12.1048 22.3528 12.159 22.432 12.231C22.5111 12.3029 22.5739 12.3909 22.6162 12.4891C22.6586 12.5873 22.6794 12.6935 22.6773 12.8004C22.6753 12.9073 22.6504 13.0125 22.6043 13.109C22.5582 13.2055 22.492 13.2911 22.4102 13.3599C17.2884 18.8537 14.4745 26.1062 14.5508 33.6168C14.6271 41.1275 17.5878 48.3213 22.8202 53.7099C22.9606 53.8505 23.0395 54.0412 23.0395 54.2399C23.0395 54.4387 22.9606 54.6293 22.8202 54.7699C22.6801 54.9125 22.49 54.9949 22.2902 54.9999Z" fill="#ED6A5E"/>
<path d="M13.7994 67.0199C15.285 67.0199 16.4894 65.8156 16.4894 64.3299C16.4894 62.8443 15.285 61.6399 13.7994 61.6399C12.3137 61.6399 11.1094 62.8443 11.1094 64.3299C11.1094 65.8156 12.3137 67.0199 13.7994 67.0199Z" fill="#ED6A5E"/>
<path d="M13.7994 5.38C15.285 5.38 16.4894 4.17565 16.4894 2.69C16.4894 1.20435 15.285 0 13.7994 0C12.3137 0 11.1094 1.20435 11.1094 2.69C11.1094 4.17565 12.3137 5.38 13.7994 5.38Z" fill="#ED6A5E"/>
<path d="M23.4595 57.35C24.9452 57.35 26.1495 56.1456 26.1495 54.66C26.1495 53.1743 24.9452 51.97 23.4595 51.97C21.9739 51.97 20.7695 53.1743 20.7695 54.66C20.7695 56.1456 21.9739 57.35 23.4595 57.35Z" fill="#ED6A5E"/>
<path d="M23.4595 14.5099C24.9452 14.5099 26.1495 13.3056 26.1495 11.8199C26.1495 10.3343 24.9452 9.12988 23.4595 9.12988C21.9739 9.12988 20.7695 10.3343 20.7695 11.8199C20.7695 13.3056 21.9739 14.5099 23.4595 14.5099Z" fill="#ED6A5E"/>
<path d="M83.5996 64.1801C83.5033 64.1811 83.4079 64.1631 83.3186 64.127C83.2294 64.091 83.1481 64.0376 83.0796 63.9701C82.9385 63.8278 82.8594 63.6355 82.8594 63.4351C82.8594 63.2347 82.9385 63.0424 83.0796 62.9001C90.6794 55.1439 95.0062 44.7627 95.1644 33.905C95.3226 23.0473 91.3002 12.5444 83.9296 4.57005C83.8264 4.4206 83.781 4.2388 83.8018 4.05839C83.8225 3.87799 83.908 3.71124 84.0423 3.58909C84.1767 3.46694 84.3508 3.39768 84.5324 3.39418C84.7139 3.39068 84.8906 3.45317 85.0296 3.57005C92.6696 11.83 96.8387 22.7128 96.6731 33.9631C96.5074 45.2134 92.0195 55.9687 84.1396 64.0001C83.9897 64.1278 83.7961 64.1923 83.5996 64.1801Z" fill="#ED6A5E"/>
<path d="M74.3802 54.9999C74.1832 55.0003 73.9935 54.9252 73.8502 54.7899C73.7097 54.6493 73.6309 54.4587 73.6309 54.2599C73.6309 54.0612 73.7097 53.8705 73.8502 53.7299C79.0826 48.3413 82.0433 41.1475 82.1196 33.6369C82.1959 26.1263 79.382 18.8737 74.2602 13.3799C74.1784 13.3111 74.1122 13.2256 74.0661 13.1291C74.02 13.0326 73.9951 12.9273 73.9931 12.8204C73.991 12.7135 74.0118 12.6074 74.0542 12.5091C74.0965 12.4109 74.1593 12.3229 74.2384 12.251C74.3176 12.179 74.4111 12.1249 74.5129 12.0921C74.6147 12.0593 74.7223 12.0486 74.8286 12.0608C74.9348 12.073 75.0372 12.1078 75.1289 12.1629C75.2206 12.2179 75.2995 12.2919 75.3602 12.3799C80.744 18.1565 83.7008 25.7818 83.6189 33.6779C83.537 41.5739 80.4226 49.1362 74.9202 54.7999C74.8485 54.8681 74.7636 54.921 74.6708 54.9554C74.5779 54.9898 74.4791 55.0049 74.3802 54.9999Z" fill="#ED6A5E"/>
<path d="M82.8599 67.0199C84.3456 67.0199 85.5499 65.8156 85.5499 64.3299C85.5499 62.8443 84.3456 61.6399 82.8599 61.6399C81.3743 61.6399 80.1699 62.8443 80.1699 64.3299C80.1699 65.8156 81.3743 67.0199 82.8599 67.0199Z" fill="#ED6A5E"/>
<path d="M82.8599 5.38C84.3456 5.38 85.5499 4.17565 85.5499 2.69C85.5499 1.20435 84.3456 0 82.8599 0C81.3743 0 80.1699 1.20435 80.1699 2.69C80.1699 4.17565 81.3743 5.38 82.8599 5.38Z" fill="#ED6A5E"/>
<path d="M73.1998 57.35C74.6854 57.35 75.8898 56.1456 75.8898 54.66C75.8898 53.1743 74.6854 51.97 73.1998 51.97C71.7141 51.97 70.5098 53.1743 70.5098 54.66C70.5098 56.1456 71.7141 57.35 73.1998 57.35Z" fill="#ED6A5E"/>
<path d="M73.1998 14.5099C74.6854 14.5099 75.8898 13.3056 75.8898 11.8199C75.8898 10.3343 74.6854 9.12988 73.1998 9.12988C71.7141 9.12988 70.5098 10.3343 70.5098 11.8199C70.5098 13.3056 71.7141 14.5099 73.1998 14.5099Z" fill="#ED6A5E"/>
</svg>
